X:1
T:Scartho, 77.77
T:Scartho, 77.77
T:Timothy Richard Matthews, 1874
T:Public Domain Courtesy of the Cyber Hymnal™
C:Timothy Richard Matthews, 1874
Z:Public Domain
Z:Courtesy of the Cyber Hymnal™
%%score ( 1 2 ) ( 3 4 )
L:1/8
Q:1/4=109
M:4/4
K:G
V:1 treble 
V:2 treble 
V:3 bass 
V:4 bass 
V:1
 D2 [DG]2 | [DF]2 [DA]2 [B,G]2 [EA]2 | [^DB]4 [EB]2 [EA]2 | D2 [DG]2 [DF]2 [^CE]2 x | D4 D2 [DG]2 | %5
 [DF]2 [DA]2 [DB]2 [Gc]2 | [Fd]4 e2 [Gd]2 | G2 [Gc]2 [GB]2 [FA]2 x | G4 |] %9
V:2
 D2 x2 | x8 | x8 | D2 x7 | D4 D2 x2 | x8 | x4 (EF) x2 | G2 x7 | G4 |] %9
V:3
 [G,B,]2 [G,B,]2 | [D,A,]2 [D,F,]2 [E,G,]2 [C,E,]2 | [B,,F,]4 [E,G,]2 [C,A,]2 | %3
 [C,F,]2 [B,,G,]2 A,3 z G, | [D,F,]4 [B,,G,]2 [G,,B,]2 | [D,A,]2 [D,F,]2 G,2 [E,G,]2 | %6
 [D,A,]4 [C,A,]2 [C,B,]2 | [E,B,]2 [C,E]2 D3 z C | [G,,B,]4 |] %9
V:4
 x4 | x8 | x8 | x4 A,,2 A,,2 x | x8 | x4 G,2 x2 | x8 | x4 D,2 D,2 x | x4 |] %9

